images/ico_help_step4.svg

<svg width="113" height="113" viewBox="0 0 113 113" fill="none" xmlns="http://www.w3.org/2000/svg">
<path fill-rule="evenodd" clip-rule="evenodd" d="M56.5 113C87.7041 113 113 87.7041 113 56.5C113 25.2959 87.7041 0 56.5 0C25.2959 0 0 25.2959 0 56.5C0 87.7041 25.2959 113 56.5 113ZM56.5 109C85.7711 109 109.5 85.4949 109.5 56.5C109.5 27.5051 85.7711 4 56.5 4C27.2289 4 3.5 27.5051 3.5 56.5C3.5 85.4949 27.2289 109 56.5 109Z" fill="url(#paint0_linear)"/>
<path d="M80.3823 38H32.5865C31.3701 38 30.2035 38.4758 29.3433 39.3227C28.4832 40.1696 28 41.3182 28 42.5159V70.7997C28 71.9974 28.4832 73.1461 29.3433 73.993C30.2035 74.8399 31.3701 75.3156 32.5865 75.3156H80.3823C81.5987 75.3156 82.7653 74.8399 83.6254 73.993C84.4855 73.1461 84.9688 71.9974 84.9688 70.7997V42.5159C84.9688 41.3182 84.4855 40.1696 83.6254 39.3227C82.7653 38.4758 81.5987 38 80.3823 38ZM83.0376 70.8141C83.0369 71.1566 82.9677 71.4956 82.8338 71.8117C82.6999 72.1278 82.5041 72.4148 82.2575 72.6562C82.0109 72.8977 81.7183 73.089 81.3965 73.2191C81.0748 73.3491 80.7301 73.4154 80.3823 73.4142H32.5865C32.2386 73.4154 31.894 73.3491 31.5722 73.2191C31.2505 73.089 30.9579 72.8977 30.7113 72.6562C30.4646 72.4148 30.2688 72.1278 30.1349 71.8117C30.0011 71.4956 29.9318 71.1566 29.9311 70.8141V69.849H83.0376V70.8141ZM83.0376 67.9476H29.9311V62.9563H83.0376V67.9476ZM83.0376 61.0549H29.9311V42.5015C29.9318 42.1591 30.0011 41.8201 30.1349 41.504C30.2688 41.1879 30.4646 40.9009 30.7113 40.6594C30.9579 40.4179 31.2505 40.2266 31.5722 40.0966C31.894 39.9665 32.2386 39.9002 32.5865 39.9014H80.3823C80.7301 39.9002 81.0748 39.9665 81.3965 40.0966C81.7183 40.2266 82.0109 40.4179 82.2575 40.6594C82.5041 40.9009 82.6999 41.1879 82.8338 41.504C82.9677 41.8201 83.0369 42.1591 83.0376 42.5015V61.0549Z" fill="url(#paint1_linear)" stroke="url(#paint2_linear)" stroke-width="1.3"/>
<path d="M73.0234 45.6421C71.9877 45.6448 70.99 46.0267 70.2243 46.7134C69.4586 46.0267 68.4609 45.6448 67.4252 45.6421C65.0487 45.6421 63.1152 47.64 63.1152 50.0958C63.1152 52.5517 65.0487 54.5496 67.4252 54.5496C68.4609 54.5469 69.4586 54.165 70.2243 53.4784C70.99 54.165 71.9877 54.5468 73.0234 54.5496C75.4 54.5496 77.3334 52.5517 77.3334 50.0958C77.3334 47.64 75.4 45.6421 73.0234 45.6421ZM69.0909 51.9149C68.8797 52.1437 68.6227 52.327 68.336 52.4532C68.0494 52.5793 67.7393 52.6457 67.4253 52.6482C66.1136 52.6482 65.0465 51.5031 65.0465 50.0958C65.0465 48.6885 66.1136 47.5435 67.4253 47.5435C67.7393 47.546 68.0494 47.6124 68.336 47.7386C68.6227 47.8648 68.8797 48.048 69.0909 48.2768C68.8419 48.8519 68.7135 49.4706 68.7135 50.0958C68.7135 50.721 68.8419 51.3398 69.0909 51.9149ZM73.0234 52.6482C72.7095 52.6457 72.3994 52.5793 72.1127 52.4532C71.8261 52.327 71.569 52.1437 71.3578 51.9149C71.6069 51.3398 71.7353 50.721 71.7353 50.0958C71.7353 49.4706 71.6069 48.8519 71.3578 48.2768C71.5691 48.048 71.8261 47.8648 72.1127 47.7386C72.3994 47.6124 72.7095 47.546 73.0234 47.5435C74.3352 47.5435 75.4023 48.6885 75.4023 50.0958C75.4023 51.5031 74.3352 52.6482 73.0234 52.6482Z" fill="url(#paint3_linear)" stroke="url(#paint4_linear)" stroke-width="1.3"/>
<defs>
<linearGradient id="paint0_linear" x1="56.5" y1="0" x2="35.64" y2="118.375" gradientUnits="userSpaceOnUse">
<stop stop-color="#50CFFA"/>
<stop offset="0.999201" stop-color="#52A2ED"/>
</linearGradient>
<linearGradient id="paint1_linear" x1="56.4844" y1="38" x2="51.8933" y2="77.7747" gradientUnits="userSpaceOnUse">
<stop stop-color="#50C4F6"/>
<stop offset="0.999201" stop-color="#51B6F3"/>
</linearGradient>
<linearGradient id="paint2_linear" x1="56.4844" y1="38" x2="56.4844" y2="75.3156" gradientUnits="userSpaceOnUse">
<stop stop-color="#50C4F6"/>
<stop offset="1" stop-color="#51B6F3"/>
</linearGradient>
<linearGradient id="paint3_linear" x1="70.2243" y1="45.6421" x2="69.175" y2="55.1472" gradientUnits="userSpaceOnUse">
<stop stop-color="#50C4F6"/>
<stop offset="0.999201" stop-color="#51B6F3"/>
</linearGradient>
<linearGradient id="paint4_linear" x1="70.2243" y1="45.6421" x2="70.2243" y2="54.5496" gradientUnits="userSpaceOnUse">
<stop stop-color="#50C4F6"/>
<stop offset="1" stop-color="#51B6F3"/>
</linearGradient>
</defs>
</svg>

<svg width="113" height="113" fill="none" xmlns="http://www.w3.org/2000/svg"><path fill-rule="evenodd" clip-rule="evenodd" d="M56.5 113c31.204 0 56.5-25.296 56.5-56.5S87.704 0 56.5 0 0 25.296 0 56.5 25.296 113 56.5 113zm0-4c29.271 0 53-23.505 53-52.5S85.771 4 56.5 4s-53 23.505-53 52.5 23.729 52.5 53 52.5z" fill="url(#paint0_linear)"/><path d="M80.382 38H32.586a4.623 4.623 0 00-3.243 1.323A4.481 4.481 0 0028 42.516V70.8c0 1.197.483 2.346 1.343 3.193a4.623 4.623 0 003.244 1.323h47.795a4.623 4.623 0 003.243-1.323A4.481 4.481 0 0084.97 70.8V42.516a4.481 4.481 0 00-1.344-3.193A4.623 4.623 0 0080.382 38zm2.656 32.814a2.57 2.57 0 01-.78 1.842 2.683 2.683 0 01-1.875.758H32.585a2.65 2.65 0 01-1.875-.758 2.572 2.572 0 01-.78-1.842v-.965h53.107v.965zm0-2.866H29.93v-4.992h53.107v4.992zm0-6.893H29.93V42.502a2.572 2.572 0 01.78-1.843 2.682 2.682 0 011.875-.758h47.796a2.681 2.681 0 011.875.758 2.57 2.57 0 01.78 1.842v18.554z" fill="url(#paint1_linear)" stroke="url(#paint2_linear)" stroke-width="1.3"/><path d="M73.023 45.642a4.21 4.21 0 00-2.799 1.071 4.21 4.21 0 00-2.799-1.07c-2.376 0-4.31 1.997-4.31 4.453 0 2.456 1.934 4.454 4.31 4.454a4.21 4.21 0 002.8-1.072 4.21 4.21 0 002.798 1.072c2.377 0 4.31-1.998 4.31-4.454 0-2.456-1.933-4.454-4.31-4.454zm-3.932 6.273a2.274 2.274 0 01-.755.538 2.308 2.308 0 01-.91.195c-1.312 0-2.38-1.145-2.38-2.552s1.068-2.552 2.38-2.552a2.306 2.306 0 011.665.733 4.577 4.577 0 000 3.638zm3.932.733a2.308 2.308 0 01-.91-.195 2.275 2.275 0 01-.755-.538 4.576 4.576 0 000-3.638 2.307 2.307 0 011.666-.733c1.311 0 2.378 1.145 2.378 2.552s-1.067 2.552-2.379 2.552z" fill="url(#paint3_linear)" stroke="url(#paint4_linear)" stroke-width="1.3"/><defs><linearGradient id="paint0_linear" x1="56.5" y1="0" x2="35.64" y2="118.375" gradientUnits="userSpaceOnUse"><stop stop-color="#50CFFA"/><stop offset=".999" stop-color="#52A2ED"/></linearGradient><linearGradient id="paint1_linear" x1="56.484" y1="38" x2="51.893" y2="77.775" gradientUnits="userSpaceOnUse"><stop stop-color="#50C4F6"/><stop offset=".999" stop-color="#51B6F3"/></linearGradient><linearGradient id="paint2_linear" x1="56.484" y1="38" x2="56.484" y2="75.316" gradientUnits="userSpaceOnUse"><stop stop-color="#50C4F6"/><stop offset="1" stop-color="#51B6F3"/></linearGradient><linearGradient id="paint3_linear" x1="70.224" y1="45.642" x2="69.175" y2="55.147" gradientUnits="userSpaceOnUse"><stop stop-color="#50C4F6"/><stop offset=".999" stop-color="#51B6F3"/></linearGradient><linearGradient id="paint4_linear" x1="70.224" y1="45.642" x2="70.224" y2="54.55" gradientUnits="userSpaceOnUse"><stop stop-color="#50C4F6"/><stop offset="1" stop-color="#51B6F3"/></linearGradient></defs></svg>
